src/icons/svgs/24/file-alt.svg

<svg width="24" height="24" viewBox="0 0 24 24" fill="none" xmlns="http://www.w3.org/2000/svg">
<path d="M19.2208 5.64766L16.1113 2.73203C15.6083 2.26336 14.9292 2 14.225 2H6.66667C5.19375 2 4 3.11914 4 4.5L4.00025 19.5C4.00025 20.8805 5.194 22 6.66692 22H17.3333C18.8 22 20 20.875 20 19.5V7.41406C20 6.75391 19.7208 6.11719 19.2208 5.64766ZM18 19.5C18 19.8452 17.7015 20.125 17.3333 20.125H6.6675C6.29925 20.125 6.00083 19.8452 6.00083 19.5L6 4.50508C6 4.15992 6.2985 3.88008 6.66667 3.88008H13.3333V7C13.3333 7.69023 13.9304 8.25 14.6667 8.25H17.9625V19.5H18ZM8 12.9375C8 13.457 8.45 13.875 9 13.875H15C15.5542 13.875 16 13.457 16 12.9375C16 12.418 15.5542 12 15 12H9C8.45 12 8 12.4219 8 12.9375ZM15 15.75H9C8.45 15.75 8 16.1719 8 16.6875C8 17.2031 8.44792 17.625 9 17.625H15C15.5521 17.625 16 17.2051 16 16.6875C16 16.1699 15.5542 15.75 15 15.75Z" fill="black"/>
</svg>

<svg width="24" height="24" viewBox="0 0 24 24" xmlns="http://www.w3.org/2000/svg">
    <path d="m19.22 5.648-3.109-2.916A2.773 2.773 0 0 0 14.225 2H6.667C5.194 2 4 3.12 4 4.5v15C4 20.88 5.194 22 6.667 22h10.666C18.8 22 20 20.875 20 19.5V7.414c0-.66-.28-1.297-.78-1.766ZM18 19.5c0 .345-.299.625-.667.625H6.668c-.369 0-.667-.28-.667-.625L6 4.505c0-.345.298-.625.667-.625h6.666V7c0 .69.597 1.25 1.334 1.25h3.295V19.5H18ZM8 12.937c0 .52.45.938 1 .938h6c.554 0 1-.418 1-.938 0-.519-.446-.937-1-.937H9c-.55 0-1 .422-1 .938Zm7 2.813H9c-.55 0-1 .422-1 .938 0 .515.448.937 1 .937h6c.552 0 1-.42 1-.938 0-.517-.446-.937-1-.937Z"/>
</svg>
